elusive/graph-alt.svg

<?xml version="1.0" encoding="UTF-8" standalone="no"?>
<!-- Generator: IcoMoon.io -->

<svg
   xmlns:dc="http://purl.org/dc/elements/1.1/"
   xmlns:cc="http://creativecommons.org/ns#"
   xmlns:rdf="http://www.w3.org/1999/02/22-rdf-syntax-ns#"
   xmlns:svg="http://www.w3.org/2000/svg"
   xmlns="http://www.w3.org/2000/svg"
   xmlns:sodipodi="http://sodipodi.sourceforge.net/DTD/sodipodi-0.dtd"
   xmlns:inkscape="http://www.inkscape.org/namespaces/inkscape"
   id="svg2"
   version="1.1"
   data-tags="remove-circle, cancel, close, remove, delete"
   height="1200"
   width="1200"
   data-du=""
   viewBox="0 0 1200 1200"
   inkscape:version="0.48.4 r9939"
   sodipodi:docname="graph-alt.svg">
  <defs
     id="defs32" />
  <sodipodi:namedview
     pagecolor="#ffffff"
     bordercolor="#666666"
     borderopacity="1"
     objecttolerance="10"
     gridtolerance="10"
     guidetolerance="10"
     inkscape:pageopacity="0"
     inkscape:pageshadow="2"
     inkscape:window-width="1535"
     inkscape:window-height="876"
     id="namedview30"
     showgrid="false"
     inkscape:zoom="0.18624688"
     inkscape:cx="1240.9343"
     inkscape:cy="-295.57422"
     inkscape:window-x="65"
     inkscape:window-y="24"
     inkscape:window-maximized="1"
     inkscape:current-layer="svg2" />
  <metadata
     id="metadata62">
    <rdf:RDF>
      <cc:Work
         rdf:about="">
        <dc:format>image/svg+xml</dc:format>
        <dc:type
           rdf:resource="http://purl.org/dc/dcmitype/StillImage" />
        <dc:title />
      </cc:Work>
    </rdf:RDF>
  </metadata>
  <path
     id="path10631"
     d="M 600,0 C 268.62914,0 0,268.62914 0,600 c 0,331.37086 268.62914,600 600,600 331.37086,0 600,-268.62914 600,-600 C 1200,268.62914 931.37086,0 600,0 z m -348.85266,335.81532 697.70532,0 0,528.36936 -697.70532,0 0,-528.36936 z m 85.76672,85.03429 0,358.30078 526.17188,0 0,-358.30078 -526.17188,0 z m 447.65625,28.34461 58.95984,34.05773 -121.94812,211.52344 -32.22657,56.03039 -27.9785,-58.30078 -43.57899,-91.04016 -64.16017,99.97547 -23.36437,36.47485 -29.95593,-31.42101 -38.1593,-40.13672 -62.10938,51.85546 -43.65233,-52.29492 86.57226,-72.29016 24.4629,-20.43445 22.04601,23.07118 30.24891,31.86046 73.68164,-114.84376 32.95897,-51.34264 26.44033,55.07812 42.04124,87.74391 89.72156,-155.56641 z"
     inkscape:connector-curvature="0" />
</svg>

<?xml version="1.0" encoding="utf-8"?>
<!-- Generator: Adobe Illustrator 16.0.0, SVG Export Plug-In . SVG Version: 6.00 Build 0)  -->
<!DOCTYPE svg PUBLIC "-//W3C//DTD SVG 1.1//EN" "http://www.w3.org/Graphics/SVG/1.1/DTD/svg11.dtd">
<svg version="1.1"
	 id="svg2" xmlns:dc="http://purl.org/dc/elements/1.1/" xmlns:cc="http://creativecommons.org/ns#" xmlns:rdf="http://www.w3.org/1999/02/22-rdf-syntax-ns#" xmlns:svg="http://www.w3.org/2000/svg" xmlns:sodipodi="http://sodipodi.sourceforge.net/DTD/sodipodi-0.dtd" xmlns:inkscape="http://www.inkscape.org/namespaces/inkscape" sodipodi:docname="graph-alt.svg" inkscape:version="0.48.4 r9939"
	 xmlns="http://www.w3.org/2000/svg" xmlns:xlink="http://www.w3.org/1999/xlink" x="0px" y="0px" width="1200px" height="1200px"
	 viewBox="0 0 1200 1200" enable-background="new 0 0 1200 1200" xml:space="preserve">
<sodipodi:namedview  inkscape:cy="-295.57422" inkscape:cx="1240.9343" inkscape:zoom="0.18624688" showgrid="false" id="namedview30" guidetolerance="10" gridtolerance="10" objecttolerance="10" borderopacity="1" bordercolor="#666666" pagecolor="#ffffff" inkscape:current-layer="svg2" inkscape:window-maximized="1" inkscape:window-y="24" inkscape:window-height="876" inkscape:window-width="1535" inkscape:pageshadow="2" inkscape:pageopacity="0" inkscape:window-x="65">
	</sodipodi:namedview>
<path id="path10631" inkscape:connector-curvature="0" d="M600,0C268.629,0,0,268.629,0,600s268.629,600,600,600
	s600-268.629,600-600S931.371,0,600,0z M251.147,335.815h697.705v528.369H251.147V335.815z M336.914,420.85V779.15h526.172V420.85
	H336.914z M784.57,449.194l58.96,34.058L721.582,694.775l-32.227,56.03l-27.979-58.301l-43.579-91.04l-64.16,99.976l-23.364,36.475
	l-29.956-31.421l-38.159-40.137l-62.109,51.855l-43.652-52.295l86.572-72.29l24.463-20.435l22.046,23.071l30.249,31.86
	l73.682-114.844l32.959-51.343l26.44,55.078l42.041,87.744L784.57,449.194z"/>
</svg>
